src/images/svg/vk.svg

<svg width="30" height="30" viewBox="0 0 30 30" fill="none" xmlns="http://www.w3.org/2000/svg">
<g clip-path="url(#clip0)">
<path d="M25.8193 17.3062C26.8144 18.2778 27.8647 19.1919 28.7573 20.2614C29.1516 20.7367 29.5248 21.2272 29.8104 21.7788C30.215 22.5629 29.8485 23.4257 29.1455 23.4725L24.775 23.4705C23.6477 23.5641 22.7485 23.1103 21.9924 22.3396C21.3873 21.7232 20.8269 21.0673 20.2451 20.4301C20.0065 20.1697 19.7569 19.9247 19.4586 19.731C18.862 19.3437 18.3441 19.4623 18.0032 20.0845C17.6559 20.7175 17.5771 21.4182 17.543 22.1236C17.4962 23.1527 17.1851 23.4233 16.1514 23.4704C13.9421 23.5746 11.8454 23.2404 9.89753 22.1259C8.18026 21.1434 6.84866 19.7563 5.68956 18.186C3.43294 15.1284 1.70472 11.7686 0.151512 8.31457C-0.198116 7.53639 0.0575866 7.11867 0.91622 7.10385C2.34198 7.07613 3.76757 7.07813 5.19503 7.10186C5.77452 7.11035 6.15813 7.4427 6.3819 7.99014C7.15329 9.88688 8.09718 11.6914 9.28194 13.3641C9.59747 13.8094 9.91921 14.2548 10.3773 14.5682C10.8841 14.9153 11.27 14.8003 11.5084 14.2356C11.6597 13.8776 11.726 13.492 11.7601 13.1087C11.8731 11.7895 11.888 10.4726 11.6899 9.15814C11.5682 8.33777 11.1061 7.80668 10.2875 7.65147C9.86982 7.57231 9.93198 7.41686 10.1342 7.17844C10.4855 6.76723 10.8159 6.51123 11.4746 6.51123H16.4139C17.1915 6.66469 17.3642 7.01402 17.4707 7.79643L17.4749 13.283C17.4664 13.5858 17.6262 14.4847 18.1717 14.6852C18.6084 14.8279 18.8962 14.4786 19.1582 14.2017C20.3408 12.9466 21.1849 11.4632 21.9389 9.92725C22.2735 9.25184 22.5613 8.55047 22.8401 7.84963C23.0467 7.32961 23.3709 7.07373 23.9567 7.08504L28.7105 7.08926C28.8515 7.08926 28.9941 7.09131 29.1306 7.11469C29.9317 7.25121 30.1512 7.5958 29.9038 8.37803C29.514 9.60527 28.7555 10.628 28.0138 11.6555C27.2211 12.7524 26.3732 13.8118 25.587 14.9153C24.8647 15.9231 24.922 16.431 25.8193 17.3062Z" fill="#436EAB"/>
</g>
<defs>
<clipPath id="clip0">
<rect width="30" height="30" fill="white"/>
</clipPath>
</defs>
</svg>

<svg xmlns="http://www.w3.org/2000/svg" fill="none" viewBox="0 0 30 30"><g clip-path="url(#clip0)"><path fill="#436EAB" d="M25.82 17.306c.994.972 2.045 1.886 2.937 2.955.395.476.768.966 1.053 1.518.405.784.039 1.647-.665 1.694l-4.37-.002c-1.127.093-2.026-.36-2.783-1.131-.605-.617-1.165-1.273-1.747-1.91a4.14 4.14 0 0 0-.786-.699c-.597-.387-1.115-.269-1.456.353-.347.634-.426 1.334-.46 2.04-.047 1.029-.358 1.3-1.392 1.346-2.209.105-4.306-.23-6.253-1.344-1.718-.983-3.05-2.37-4.208-3.94-2.257-3.058-3.985-6.417-5.538-9.871-.35-.779-.094-1.196.764-1.211 1.426-.028 2.852-.026 4.279-.002.58.008.963.34 1.187.888.771 1.897 1.715 3.701 2.9 5.374.315.445.637.89 1.095 1.204.507.347.893.232 1.131-.332.152-.358.218-.744.252-1.127.113-1.32.128-2.636-.07-3.95-.122-.821-.584-1.352-1.402-1.508-.418-.079-.356-.234-.154-.473.351-.41.682-.667 1.34-.667h4.94c.777.154.95.503 1.057 1.285l.004 5.487c-.009.303.151 1.202.697 1.402.436.143.724-.206.986-.483 1.183-1.255 2.027-2.739 2.78-4.275.335-.675.623-1.377.902-2.077.207-.52.53-.776 1.117-.765l4.753.004c.142 0 .284.002.42.026.802.136 1.021.48.774 1.263-.39 1.227-1.148 2.25-1.89 3.277-.793 1.097-1.64 2.157-2.427 3.26-.722 1.008-.665 1.516.232 2.391z"/></g><defs><clipPath id="clip0"><path fill="#fff" d="M0 0h30v30H0z"/></clipPath></defs></svg>
